X: 1
T: Da Boannie Polka
M: 4/4
L: 1/8
R: barndance
K: Dmaj
A>G|F2A2 G2B2|A2f2 f>af>d|B2e2 e>fe>c|A2d2 d2:|
|:f>e|d2B2 B>cd>B|A2F2 F3A|G2E2 E>FG>E|F2D2 D2:|
